images/quiz_woman.svg

<svg width="270" height="175" viewBox="0 0 270 175" fill="none" xmlns="http://www.w3.org/2000/svg">
<rect width="270" height="175" rx="25" fill="white"/>
<path fill-rule="evenodd" clip-rule="evenodd" d="M132.686 37.0195C132.462 37.0327 131.73 37.0862 131.06 37.1382C119.18 38.0603 108.099 43.1736 99.6292 51.6424C91.7606 59.5097 86.7552 69.6848 85.3723 80.6238C85.0645 83.0583 85 84.1651 85 87.0077C85 89.8503 85.0645 90.9572 85.3723 93.3917C86.7552 104.331 91.7606 114.506 99.6292 122.373C107.498 130.24 117.674 135.245 128.615 136.628C131.05 136.935 132.157 137 135 137C137.843 137 138.95 136.935 141.385 136.628C152.326 135.245 162.502 130.24 170.371 122.373C178.239 114.506 183.245 104.331 184.628 93.3917C184.935 90.9572 185 89.8503 185 87.0077C185 84.1651 184.935 83.0583 184.628 80.6238C183.245 69.6848 178.239 59.5097 170.371 51.6424C161.91 43.183 151.072 38.17 139.003 37.1337C137.905 37.0394 133.65 36.9625 132.686 37.0195ZM138.534 41.1382C144.761 41.6473 150.292 43.1973 155.829 45.9843C161.664 48.921 167.047 53.3366 171.156 58.5551C175.855 64.524 179.002 71.5475 180.305 78.972C180.804 81.8157 180.993 84.0196 180.993 87.0077C180.993 89.9959 180.804 92.1998 180.305 95.0435C178.865 103.251 175.215 110.869 169.654 117.274C168.803 118.254 166.397 120.714 166.289 120.714C166.252 120.714 165.959 120.535 165.638 120.317C164.656 119.65 163.606 119.06 162.011 118.279C160.244 117.414 159.626 117.148 156.019 115.701C152.295 114.207 150.882 113.577 149.479 112.787C147.39 111.609 145.894 110.188 145.163 108.685C144.979 108.306 144.872 107.895 144.849 107.476L144.822 106.987C144.787 106.368 144.759 105.814 144.758 105.755C144.757 105.632 144.737 105.636 146.258 105.455C151.528 104.827 156.041 103.598 158.069 102.237C158.944 101.65 159.507 100.932 159.532 100.373C159.543 100.128 159.513 100.061 159.279 99.7948C158.204 98.5739 157.625 96.1313 157.388 91.8229C157.351 91.1522 157.295 87.3954 157.264 83.4745C157.21 76.7592 157.178 75.4317 157.015 73.0624C156.523 65.9159 155.144 61.0273 152.71 57.8039C152.192 57.1174 151.006 55.9592 150.323 55.4738C148.465 54.1515 145.984 53.4264 143.316 53.4264H143.151C142.777 53.4264 142.412 53.3091 142.108 53.091C140.777 52.1362 138.998 51.5157 136.877 51.2669C135.888 51.1508 135.069 51.1515 133.999 51.2695C127.152 52.0248 122.144 54.7653 118.838 59.5669C116.336 63.2018 114.797 68.143 114.112 74.7442C113.834 77.4197 113.711 79.7669 113.58 84.8503C113.476 88.9285 113.441 89.9437 113.355 91.3852C113.089 95.8962 112.415 98.6089 111.215 100.009C111.058 100.192 111.038 100.256 111.072 100.468C111.365 102.302 115.334 104.026 121.678 105.075C122.593 105.227 125.182 105.581 125.374 105.581C125.395 105.581 125.405 105.644 125.394 105.721C125.384 105.799 125.342 106.364 125.3 106.978C125.226 108.081 125.222 108.1 124.982 108.598C124.595 109.398 124.199 109.94 123.461 110.677C122.451 111.686 121.35 112.434 119.536 113.343C118.209 114.008 117.238 114.424 113.85 115.78C108.566 117.896 106.514 118.88 104.392 120.316C103.998 120.584 103.469 120.532 103.133 120.194L102.422 119.479C101.022 118.07 99.9606 116.878 98.8444 115.46C94.1453 109.491 90.9978 102.468 89.6947 95.0435C89.1957 92.1998 89.007 89.9959 89.007 87.0077C89.007 79.6188 90.6269 72.8218 93.9703 66.1815C96.9074 60.3481 101.324 54.9655 106.543 50.8577C113.079 45.7134 120.878 42.4343 129.064 41.3883C130.139 41.2509 132.134 41.0755 133.249 41.0204C134.204 40.9732 137.383 41.044 138.534 41.1382Z" fill="#111111" fill-opacity="0.2"/>
</svg>

<svg width="270" height="175" fill="none" xmlns="http://www.w3.org/2000/svg"><rect width="270" height="175" rx="25" fill="#fff"/><path fill-rule="evenodd" clip-rule="evenodd" d="M132.686 37.02c-.224.013-.956.066-1.626.118-11.88.922-22.961 6.036-31.43 14.504-7.87 7.868-12.875 18.043-14.258 28.982-.308 2.434-.372 3.541-.372 6.384 0 2.842.064 3.95.372 6.384 1.383 10.939 6.389 21.114 14.257 28.981 7.869 7.867 18.045 12.872 28.986 14.255 2.435.307 3.542.372 6.385.372s3.95-.065 6.385-.372c10.941-1.383 21.117-6.388 28.986-14.255 7.868-7.867 12.874-18.042 14.257-28.981.307-2.435.372-3.542.372-6.384 0-2.843-.065-3.95-.372-6.384-1.383-10.94-6.389-21.114-14.257-28.982-8.461-8.459-19.299-13.472-31.368-14.508-1.098-.095-5.353-.172-6.317-.114Zm5.848 4.118c6.227.51 11.758 2.06 17.295 4.846 5.835 2.937 11.218 7.353 15.327 12.571a45.857 45.857 0 0 1 9.149 20.417c.499 2.844.688 5.048.688 8.036 0 2.988-.189 5.192-.688 8.035-1.44 8.208-5.09 15.826-10.651 22.231-.851.98-3.257 3.44-3.365 3.44-.037 0-.33-.179-.651-.397-.982-.667-2.032-1.257-3.627-2.038-1.767-.865-2.385-1.131-5.992-2.578-3.724-1.494-5.137-2.124-6.54-2.914-2.089-1.178-3.585-2.599-4.316-4.102a3.166 3.166 0 0 1-.314-1.209l-.027-.489a91.444 91.444 0 0 1-.064-1.232c-.001-.123-.021-.119 1.5-.3 5.27-.628 9.783-1.857 11.811-3.218.875-.587 1.438-1.305 1.463-1.864.011-.245-.019-.312-.253-.578-1.075-1.221-1.654-3.664-1.891-7.972-.037-.67-.093-4.428-.124-8.348-.054-6.716-.086-8.043-.249-10.413-.492-7.146-1.871-12.035-4.305-15.258-.518-.687-1.704-1.845-2.387-2.33-1.858-1.322-4.339-2.048-7.007-2.048h-.165a1.79 1.79 0 0 1-1.043-.335c-1.331-.955-3.11-1.575-5.231-1.824-.989-.116-1.808-.116-2.878.002-6.847.756-11.855 3.496-15.161 8.298-2.502 3.635-4.041 8.576-4.726 15.177-.278 2.676-.401 5.023-.532 10.106-.104 4.079-.139 5.094-.225 6.535-.266 4.511-.94 7.224-2.14 8.624-.157.183-.177.247-.143.459.293 1.834 4.262 3.558 10.606 4.607.915.152 3.504.506 3.696.506.021 0 .031.063.02.14-.01.078-.052.643-.094 1.257-.074 1.103-.078 1.122-.318 1.62-.387.8-.783 1.342-1.521 2.079-1.01 1.009-2.111 1.757-3.925 2.666-1.327.665-2.298 1.081-5.686 2.437-5.284 2.116-7.336 3.1-9.458 4.536a.99.99 0 0 1-1.259-.122l-.711-.715a44.288 44.288 0 0 1-3.578-4.019 45.857 45.857 0 0 1-9.15-20.416c-.498-2.844-.687-5.048-.687-8.036 0-7.39 1.62-14.186 4.963-20.826 2.937-5.834 7.354-11.217 12.573-15.324 6.536-5.145 14.335-8.424 22.521-9.47a68.834 68.834 0 0 1 4.185-.368c.955-.047 4.134.024 5.285.118Z" fill="#111" fill-opacity=".2"/></svg>
